dist/images/icons/facebook.svg

<svg width="25" height="24" viewBox="0 0 25 24" fill="none" xmlns="http://www.w3.org/2000/svg">
<path d="M24.333 12.0733C24.333 5.40546 18.9604 0 12.333 0C5.70563 0 0.333008 5.40536 0.333008 12.0733C0.333008 18.0994 4.72126 23.0943 10.458 24V15.5633H7.41113V12.0733H10.458V9.41343C10.458 6.38755 12.2496 4.71615 14.9905 4.71615C16.3035 4.71615 17.6768 4.95195 17.6768 4.95195V7.92313H16.1636C14.6728 7.92313 14.208 8.85381 14.208 9.80864V12.0733H17.5361L17.0041 15.5633H14.208V24C19.9448 23.0943 24.333 18.0995 24.333 12.0733Z" fill="#1877F2"/>
</svg>

<svg width="25" height="24" fill="none" xmlns="http://www.w3.org/2000/svg"><path d="M24.333 12.073C24.333 5.405 18.96 0 12.333 0s-12 5.405-12 12.073C.333 18.1 4.721 23.094 10.458 24v-8.437H7.411v-3.49h3.047v-2.66c0-3.025 1.792-4.697 4.533-4.697 1.313 0 2.686.236 2.686.236v2.971h-1.513c-1.491 0-1.956.93-1.956 1.886v2.264h3.328l-.532 3.49h-2.796V24c5.737-.906 10.125-5.9 10.125-11.927z" fill="#1877F2"/></svg>
